X: 17415
T: Highfield
R: reel
M: 4/4
K: Dmajor
EEeE d2Bd|c2BA Bdef|gedB edBA|dBAG A2GA|
EEeEd2Bd|c2BAB2EF|G2BGF2AF|1 EDB,DE3D:|2 EDB,DE3F||
|:G2Bde2de|d2efg2ga|bgeB afdB|edBA BAGF|
G2Bde2de|d2efg2EF|G2BGF2AF|EDB,DE2B,A,|
G,2B,DE2DB,|EB,FB, G2GA|BABA GAGF|ED=CB,2 A,GF|
EEeEd2Bd|c2BAB2EF|G2BGF2AF|EDB,DE3D||

